THStack/json.svg

<svg xmlns="http://www.w3.org/2000/svg" viewBox="0 0 1200 800" preserveAspectRatio="none" width="1200" height="800">
 <path d="M0,0H1200V800H0Z" style="fill: white;"></path>
 <g>
  <g transform="translate(120,80)">
   <path d="M0,0H960V640H0Z" style="fill: white; stroke: black; stroke-width: 1;"></path>
   <svg x="0" y="0" overflow="hidden" width="960" height="640" viewBox="0 0 960 640">
    <g>
     <path d="M0,596h10v-13h9v-19h10v13h9v-20h10v20h10v19h9v-13h10v-13h9v-44h10v57h10v19h9v-64h10v45h9v-6h10v19h10v-13h9v19h10v-19h9v-26h10v26h19v13h10v-32h9v19h10v-6h10v12h9v-6h10v-6h9v25h10v-38h10v-13h9v45h10v-19h9v6h10v13h10v-26h9v7h10v25h9v-57h10v44h10v13h9v-13h19v-19h10v-25h10v38h9v-13h10v-44h9v-26h10v-38h10v38h9v-95h19v-25h10v-216h10v51h9v-96h10v19h9v-57h10v-12h10v-39h9v159h10v-82h9v114h10v32h10v50h9v13h10v121h9v57h10v44h10v-19h9v19h10v26h9v-26h10v45h10v13h9v-32h10v32h9v19h10v-64h10v38h9v-12h10v12h19v-19h10v13h9v-13h19v13h10v6h10v13h9v32h10v-57h9v6h10v-19h10v-38h9v89h10v-58h19" style="stroke-linejoin: miter; stroke: #000099; stroke-width: 3; fill: none;"></path>
    </g>
    <g>
     <path d="M0,596h10v-13h9v-19h10v13h9v-20h10v20h10v19h9v-13h10v-13h9v-44h10v57h10v19h9v-64h10v45h9v-6h10v19h10v-13h9v19h10v-19h9v-26h10v26h19v13h10v-32h9v19h10v-6h10v12h9v-6h10v-6h9v25h10v-38h10v-13h9v45h10v-19h9v6h10v13h10v-26h9v7h10v25h9v-57h10v44h10v13h9v-13h19v-19h10v-25h10v38h19v-26h9v-19h10v32h10v13h9v-6h10v6h9v13h10v-45h10v38h9v-44h10v57h9v-6h10v-7h10v-19h9v-6h10v-13h9v6h10v7h10v-13h19v-6h9v19h10v19h10v-13h9v7h10v-13h9v-13h10v32h10v19h9v-32h10v26h9v19h10v-64h10v38h9v-12h10v12h19v-19h10v13h9v-13h19v13h10v6h10v13h9v32h10v-57h9v6h10v-19h10v-38h9v89h10v-58h19" style="stroke-linejoin: miter; stroke: #000099; stroke-width: 3; fill: none;"></path>
    </g>
   </svg>
   <g>
    <g transform="translate(0,640)">
     <path d="M0,0h960M0,-24v24m19,-12v12m19,-12v12m20,-12v12m19,-12v12m19,-24v24m19,-12v12m19,-12v12m20,-12v12m19,-12v12m19,-24v24m19,-12v12m19,-12v12m20,-12v12m19,-12v12m19,-24v24m19,-12v12m19,-12v12m20,-12v12m19,-12v12m19,-24v24m19,-12v12m19,-12v12m20,-12v12m19,-12v12m19,-24v24m19,-12v12m19,-12v12m20,-12v12m19,-12v12m19,-24v24m19,-12v12m19,-12v12m20,-12v12m19,-12v12m19,-24v24m19,-12v12m19,-12v12m20,-12v12m19,-12v12m19,-24v24m19,-12v12m19,-12v12m20,-12v12m19,-12v12m19,-24v24m19,-12v12m19,-12v12m20,-12v12m19,-12v12m19,-24v24" style="stroke: black; stroke-width: 1;"></path>
     <g font-family="Arial" font-size="28" space="preserve" fill="black" text-anchor="middle">
      <text dy=".8em" transform="translate(0,6)">
       0
      </text>
      <text dy=".8em" transform="translate(96,6)">
       10
      </text>
      <text dy=".8em" transform="translate(192,6)">
       20
      </text>
      <text dy=".8em" transform="translate(288,6)">
       30
      </text>
      <text dy=".8em" transform="translate(384,6)">
       40
      </text>
      <text dy=".8em" transform="translate(480,6)">
       50
      </text>
      <text dy=".8em" transform="translate(576,6)">
       60
      </text>
      <text dy=".8em" transform="translate(672,6)">
       70
      </text>
      <text dy=".8em" transform="translate(768,6)">
       80
      </text>
      <text dy=".8em" transform="translate(864,6)">
       90
      </text>
      <text dy=".8em" transform="translate(960,6)">
       100
      </text>
     </g>
    </g>
    <g>
     <path d="M0,0v640M36,640h-36m18,-13h-18m18,-12h-18m18,-13h-18m18,-13h-18m36,-12h-36m18,-13h-18m18,-13h-18m18,-13h-18m18,-12h-18m36,-13h-36m18,-13h-18m18,-12h-18m18,-13h-18m18,-13h-18m36,-12h-36m18,-13h-18m18,-13h-18m18,-13h-18m18,-12h-18m36,-13h-36m18,-13h-18m18,-12h-18m18,-13h-18m18,-13h-18m36,-12h-36m18,-13h-18m18,-13h-18m18,-13h-18m18,-12h-18m36,-13h-36m18,-13h-18m18,-12h-18m18,-13h-18m18,-13h-18m36,-12h-36m18,-13h-18m18,-13h-18m18,-13h-18m18,-12h-18m36,-13h-36m18,-13h-18m18,-12h-18m18,-13h-18m18,-13h-18m36,-12h-36m18,-13h-18m18,-13h-18m18,-13h-18m18,-12h-18m36,-13h-36" style="stroke: black; stroke-width: 1;"></path>
     <g font-family="Arial" font-size="28" space="preserve" fill="black" text-anchor="end">
      <text dy=".4em" transform="translate(-4,640)">
       0
      </text>
      <text dy=".4em" transform="translate(-4,577)">
       10
      </text>
      <text dy=".4em" transform="translate(-4,513)">
       20
      </text>
      <text dy=".4em" transform="translate(-4,450)">
       30
      </text>
      <text dy=".4em" transform="translate(-4,386)">
       40
      </text>
      <text dy=".4em" transform="translate(-4,323)">
       50
      </text>
      <text dy=".4em" transform="translate(-4,259)">
       60
      </text>
      <text dy=".4em" transform="translate(-4,196)">
       70
      </text>
      <text dy=".4em" transform="translate(-4,132)">
       80
      </text>
      <text dy=".4em" transform="translate(-4,69)">
       90
      </text>
      <text dy=".4em" transform="translate(-4,5)">
       100
      </text>
     </g>
    </g>
   </g>
  </g>
 </g>
</svg>

<svg xmlns="http://www.w3.org/2000/svg" viewBox="0 0 1200 800" preserveAspectRatio="none" width="1200" height="800">
 <path d="M0,0H1200V800H0Z" style="fill: white;"></path>
 <g>
  <g transform="translate(120,80)">
   <path d="M0,0H960V640H0Z" style="fill: white; stroke: black; stroke-width: 1;"></path>
   <svg x="0" y="0" overflow="hidden" width="960" height="640" viewBox="0 0 960 640">
    <g>
     <path d="M0,596h10v-13h9v-19h10v13h9v-20h10v20h10v19h9v-13h10v-13h9v-44h10v57h10v19h9v-64h10v45h9v-6h10v19h10v-13h9v19h10v-19h9v-26h10v26h19v13h10v-32h9v19h10v-6h10v12h9v-6h10v-6h9v25h10v-38h10v-13h9v45h10v-19h9v6h10v13h10v-26h9v7h10v25h9v-57h10v44h10v13h9v-13h19v-19h10v-25h10v38h9v-13h10v-44h9v-26h10v-38h10v38h9v-95h19v-25h10v-216h10v51h9v-96h10v19h9v-57h10v-12h10v-39h9v159h10v-82h9v114h10v32h10v50h9v13h10v121h9v57h10v44h10v-19h9v19h10v26h9v-26h10v45h10v13h9v-32h10v32h9v19h10v-64h10v38h9v-12h10v12h19v-19h10v13h9v-13h19v13h10v6h10v13h9v32h10v-57h9v6h10v-19h10v-38h9v89h10v-58h19" style="stroke-linejoin: miter; stroke: #000099; stroke-width: 3; fill: none;"></path>
    </g>
    <g>
     <path d="M0,596h10v-13h9v-19h10v13h9v-20h10v20h10v19h9v-13h10v-13h9v-44h10v57h10v19h9v-64h10v45h9v-6h10v19h10v-13h9v19h10v-19h9v-26h10v26h19v13h10v-32h9v19h10v-6h10v12h9v-6h10v-6h9v25h10v-38h10v-13h9v45h10v-19h9v6h10v13h10v-26h9v7h10v25h9v-57h10v44h10v13h9v-13h19v-19h10v-25h10v38h19v-26h9v-19h10v32h10v13h9v-6h10v6h9v13h10v-45h10v38h9v-44h10v57h9v-6h10v-7h10v-19h9v-6h10v-13h9v6h10v7h10v-13h19v-6h9v19h10v19h10v-13h9v7h10v-13h9v-13h10v32h10v19h9v-32h10v26h9v19h10v-64h10v38h9v-12h10v12h19v-19h10v13h9v-13h19v13h10v6h10v13h9v32h10v-57h9v6h10v-19h10v-38h9v89h10v-58h19" style="stroke-linejoin: miter; stroke: #000099; stroke-width: 3; fill: none;"></path>
    </g>
   </svg>
   <g>
    <g transform="translate(0,640)">
     <path d="M0,0h960M0,-24V0M19,-12V0M38,-12V0M58,-12V0M77,-12V0M96,-24V0M115,-12V0M134,-12V0M154,-12V0M173,-12V0M192,-24V0M211,-12V0M230,-12V0M250,-12V0M269,-12V0M288,-24V0M307,-12V0M326,-12V0M346,-12V0M365,-12V0M384,-24V0M403,-12V0M422,-12V0M442,-12V0M461,-12V0M480,-24V0M499,-12V0M518,-12V0M538,-12V0M557,-12V0M576,-24V0M595,-12V0M614,-12V0M634,-12V0M653,-12V0M672,-24V0M691,-12V0M710,-12V0M730,-12V0M749,-12V0M768,-24V0M787,-12V0M806,-12V0M826,-12V0M845,-12V0M864,-24V0M883,-12V0M902,-12V0M922,-12V0M941,-12V0M960,-24V0" style="stroke: black; stroke-width: 1;"></path>
     <g font-family="Arial" font-size="28" space="preserve" fill="black" text-anchor="middle">
      <text dy=".8em" transform="translate(0,6)">
       0
      </text>
      <text dy=".8em" transform="translate(96,6)">
       10
      </text>
      <text dy=".8em" transform="translate(192,6)">
       20
      </text>
      <text dy=".8em" transform="translate(288,6)">
       30
      </text>
      <text dy=".8em" transform="translate(384,6)">
       40
      </text>
      <text dy=".8em" transform="translate(480,6)">
       50
      </text>
      <text dy=".8em" transform="translate(576,6)">
       60
      </text>
      <text dy=".8em" transform="translate(672,6)">
       70
      </text>
      <text dy=".8em" transform="translate(768,6)">
       80
      </text>
      <text dy=".8em" transform="translate(864,6)">
       90
      </text>
      <text dy=".8em" transform="translate(960,6)">
       100
      </text>
     </g>
    </g>
    <g>
     <path d="M0,0v640M36,640H0M18,627H0M18,615H0M18,602H0M18,589H0M36,577H0M18,564H0M18,551H0M18,538H0M18,526H0M36,513H0M18,500H0M18,488H0M18,475H0M18,462H0M36,450H0M18,437H0M18,424H0M18,411H0M18,399H0M36,386H0M18,373H0M18,361H0M18,348H0M18,335H0M36,323H0M18,310H0M18,297H0M18,284H0M18,272H0M36,259H0M18,246H0M18,234H0M18,221H0M18,208H0M36,196H0M18,183H0M18,170H0M18,157H0M18,145H0M36,132H0M18,119H0M18,107H0M18,94H0M18,81H0M36,69H0M18,56H0M18,43H0M18,30H0M18,18H0M36,5H0" style="stroke: black; stroke-width: 1;"></path>
     <g font-family="Arial" font-size="28" space="preserve" fill="black" text-anchor="end">
      <text dy=".4em" transform="translate(-4,640)">
       0
      </text>
      <text dy=".4em" transform="translate(-4,577)">
       10
      </text>
      <text dy=".4em" transform="translate(-4,513)">
       20
      </text>
      <text dy=".4em" transform="translate(-4,450)">
       30
      </text>
      <text dy=".4em" transform="translate(-4,386)">
       40
      </text>
      <text dy=".4em" transform="translate(-4,323)">
       50
      </text>
      <text dy=".4em" transform="translate(-4,259)">
       60
      </text>
      <text dy=".4em" transform="translate(-4,196)">
       70
      </text>
      <text dy=".4em" transform="translate(-4,132)">
       80
      </text>
      <text dy=".4em" transform="translate(-4,69)">
       90
      </text>
      <text dy=".4em" transform="translate(-4,5)">
       100
      </text>
     </g>
    </g>
   </g>
  </g>
 </g>
</svg>
